svg/l/FK.svg

<svg width="32" height="24" viewBox="0 0 32 24" fill="none" xmlns="http://www.w3.org/2000/svg">
<g clip-path="url(#clip0_270_67548)">
<rect width="32" height="24" fill="white"/>
<path fill-rule="evenodd" clip-rule="evenodd" d="M0 0V24H32V0H0Z" fill="#2E42A5"/>
<mask id="mask0_270_67548" style="mask-type:luminance" maskUnits="userSpaceOnUse" x="0" y="0" width="32" height="24">
<path fill-rule="evenodd" clip-rule="evenodd" d="M0 0V24H32V0H0Z" fill="white"/>
</mask>
<g mask="url(#mask0_270_67548)">
</g>
<g clip-path="url(#clip1_270_67548)">
<rect width="18" height="14" fill="#2E42A5"/>
<path d="M-2.00427 12.9998L1.95668 14.737L18.0899 1.88875L20.1792 -0.69278L15.9435 -1.2734L9.36317 4.26329L4.06667 7.99372L-2.00427 12.9998Z" fill="#F7FCFF"/>
<path d="M-1.46204 14.2169L0.555885 15.2251L19.4289 -0.932648H16.5955L-1.46204 14.2169Z" fill="#F50100"/>
<path d="M20.0043 12.9998L16.0433 14.737L-0.0898743 1.88875L-2.17919 -0.69278L2.05648 -1.2734L8.63683 4.26329L13.9333 7.99372L20.0043 12.9998Z" fill="#F7FCFF"/>
<path d="M19.8691 13.8733L17.8512 14.8815L9.81489 7.96351L7.43229 7.19059L-2.3802 -0.683947H0.453194L10.2602 7.00368L12.8651 7.9305L19.8691 13.8733Z" fill="#F50100"/>
<path fill-rule="evenodd" clip-rule="evenodd" d="M9.98451 0H7.98451V6H0V8H7.98451V14H9.98451V8H18V6H9.98451V0Z" fill="#F50100"/>
<path fill-rule="evenodd" clip-rule="evenodd" d="M6.48451 0H11.4845V4.5H18V9.5H11.4845L11.5 14H6.5L6.48451 9.5H0V4.5H6.48451V0ZM7.98451 6H0V8H7.98451V14H9.98451V8H18V6H9.98451V0H7.98451V6Z" fill="#F7FCFF"/>
</g>
<path d="M22.9632 18.3937C22.9632 18.3937 23.9472 19.3362 23.353 19.9747C22.7589 20.6133 22.2141 20.2424 22.2141 20.2424" stroke="#B85F3C"/>
<path d="M29.0498 18.3937C29.0498 18.3937 28.0659 19.3362 28.66 19.9747C29.2542 20.6133 29.799 20.2424 29.799 20.2424" stroke="#B85F3C"/>
<path d="M22.3207 19.1531C22.3207 19.1531 24.0159 20.7731 26.0998 20.7731C28.1838 20.7731 29.8607 19.5355 29.8607 19.5355" stroke="#CB8B73"/>
</g>
<defs>
<clipPath id="clip0_270_67548">
<rect width="32" height="24" fill="white"/>
</clipPath>
<clipPath id="clip1_270_67548">
<rect width="18" height="14" fill="white"/>
</clipPath>
</defs>
</svg>

<svg width="32" height="24" fill="none" xmlns="http://www.w3.org/2000/svg">
  <mask id="a" maskUnits="userSpaceOnUse" x="0" y="0" width="32" height="24">
    <path fill="#fff" d="M0 0h32v24H0z"/>
  </mask>
  <g mask="url(#a)">
    <path fill-rule="evenodd" clip-rule="evenodd" d="M0 0v24h32V0H0z" fill="#2E42A5"/>
    <mask id="b" maskUnits="userSpaceOnUse" x="0" y="0" width="32" height="24">
      <path fill-rule="evenodd" clip-rule="evenodd" d="M0 0v24h32V0H0z" fill="#fff"/>
    </mask>
    <g mask="url(#b)">
      <path d="M25.95 19.714c-1.028 0-1.744-.243-2.254-.666-.512-.425-.847-1.06-1.062-1.904-.215-.846-.303-1.88-.336-3.083a88.606 88.606 0 01-.014-2.745l.004-1.033h7.416c.132 2.407.18 4.753-.292 6.513-.242.904-.615 1.63-1.164 2.13-.544.495-1.282.788-2.298.788z" fill="#6DC2FF" stroke="#F7FCFF" stroke-width=".5"/>
      <mask id="c" maskUnits="userSpaceOnUse" x="22" y="10" width="9" height="10">
        <path d="M25.95 19.714c-1.028 0-1.744-.243-2.254-.666-.512-.425-.847-1.06-1.062-1.904-.215-.846-.303-1.88-.336-3.083a88.606 88.606 0 01-.014-2.745l.004-1.033h7.416c.132 2.407.18 4.753-.292 6.513-.242.904-.615 1.63-1.164 2.13-.544.495-1.282.788-2.298.788z" fill="#fff" stroke="#fff" stroke-width=".5"/>
      </mask>
      <g mask="url(#c)">
        <path fill-rule="evenodd" clip-rule="evenodd" d="M24.522 13.587s-.395-.292-.564-.765c-.17-.473-.504-1.732-.504-1.841 0-.11-.446 0-.446 0s.006-.532.175-.532c.168 0 .174-.494.582-.37.408.125.729.58 1.145.58.415 0 2.153.133 2.433.133.279 0 1.015.59 1.015 1.031 0 .441-.2 1.1-.358 1.1-.158 0-.357.382-.657.255-.3-.126-1.017-.386-1.66-.256-.642.13-.773.048-.773.256 0 .208-.388.409-.388.409z" fill="#E1E5E8"/>
        <path fill-rule="evenodd" clip-rule="evenodd" d="M23.6 13.279h5.155l-.887 1.147h-3.643L23.6 13.28z" fill="#49801E"/>
        <path d="M23.533 18.296s.89.318 1.263.28c.413-.043.778-.513 1.053-.513.276 0 .805.47 1.217.513.373.038 1.1-.28 1.1-.28m-5.612-1.36c.308-.26.979-.28.979-.28s.89.319 1.263.28c.413-.043.778-.513 1.053-.513.276 0 .805.47 1.217.513.373.039 1.1-.28 1.1-.28s.406-.457.917.026" stroke="#fff" stroke-width="1.067"/>
        <path d="M22.46 15.53l-.674-.827c.265-.215.709-.428 1.357-.663l.314-.015c.672.172 1.122.247 1.286.23.054-.005.145-.049.31-.159.471-.312.517-.337.796-.337.256 0 .308.024.842.313.1.053.136.072.19.098a.862.862 0 00.238.086c.128.013.386-.047.747-.193.47-.426 1.064-.382 1.576.084.341.311.615.562.822.754l-.725.782c-.204-.189-.476-.438-.815-.748-.135-.122-.106-.122-.166-.057l-.185.13c-.56.237-1.002.345-1.36.31a1.765 1.765 0 01-.594-.187 5.303 5.303 0 01-.235-.121c-.257-.14-.355-.185-.335-.185.045 0-.017.035-.206.16-.303.202-.514.304-.794.332-.308.031-.79-.043-1.494-.218-.458.173-.762.323-.894.43z" fill="#fff"/>
      </g>
      <path d="M22.963 18.394s.984.942.39 1.58c-.594.64-1.139.268-1.139.268m6.836-1.848s-.984.942-.39 1.58c.594.64 1.139.268 1.139.268" stroke="#B85F3C"/>
      <path d="M22.32 19.153s1.696 1.62 3.78 1.62c2.084 0 3.76-1.238 3.76-1.238" stroke="#CB8B73"/>
      <path fill="#2B409A" d="M0 0h18v14H0z"/>
      <mask id="d" maskUnits="userSpaceOnUse" x="0" y="0" width="18" height="14">
        <path fill="#fff" d="M0 0h18v14H0z"/>
      </mask>
      <g mask="url(#d)">
        <path d="M-2.004 13l3.96 1.737L18.09 1.889l2.09-2.582-4.236-.58-6.58 5.536-5.297 3.73L-2.004 13z" fill="#F7FCFF"/>
        <path d="M-1.462 14.217l2.018 1.008L19.429-.933h-2.833l-18.058 15.15z" fill="#F50100"/>
        <path d="M20.004 13l-3.96 1.737L-.09 1.889-2.18-.693l4.236-.58 6.58 5.536 5.297 3.73L20.004 13z" fill="#F7FCFF"/>
        <path d="M19.87 13.873l-2.019 1.009-8.036-6.918-2.383-.773L-2.38-.684H.453l9.807 7.688 2.605.927 7.004 5.942z" fill="#F50100"/>
        <mask id="e" maskUnits="userSpaceOnUse" x="-2" y="-2" width="22" height="18" fill="#000">
          <path fill="#fff" d="M-2-2h22v18H-2z"/>
          <path fill-rule="evenodd" clip-rule="evenodd" d="M9.985 0h-2v6H0v2h7.985v6h2V8H18V6H9.985V0z"/>
        </mask>
        <path fill-rule="evenodd" clip-rule="evenodd" d="M9.985 0h-2v6H0v2h7.985v6h2V8H18V6H9.985V0z" fill="#F50100"/>
        <path d="M7.985 0v-1.5h-1.5V0h1.5zm2 0h1.5v-1.5h-1.5V0zm-2 6v1.5h1.5V6h-1.5zM0 6V4.5h-1.5V6H0zm0 2h-1.5v1.5H0V8zm7.985 0h1.5V6.5h-1.5V8zm0 6h-1.5v1.5h1.5V14zm2 0v1.5h1.5V14h-1.5zm0-6V6.5h-1.5V8h1.5zM18 8v1.5h1.5V8H18zm0-2h1.5V4.5H18V6zM9.985 6h-1.5v1.5h1.5V6zm-2-4.5h2v-3h-2v3zm1.5 4.5V0h-3v6h3zM0 7.5h7.985v-3H0v3zm1.5.5V6h-3v2h3zm6.485-1.5H0v3h7.985v-3zm1.5 7.5V8h-3v6h3zm.5-1.5h-2v3h2v-3zM8.485 8v6h3V8h-3zM18 6.5H9.985v3H18v-3zM16.5 6v2h3V6h-3zM9.985 7.5H18v-3H9.985v3zM8.485 0v6h3V0h-3z" fill="#F7FCFF" mask="url(#e)"/>
      </g>
    </g>
  </g>
</svg>
